X: 1
T: The Brandon Quick Step
B: William Clarke MS 1858
I: abc2nwc
N: repeats slightly tidied for tradtunes
M: 6/8
L: 1/8
Z: Lyn Law 04/06
K:C
   G | c2c cBc | g2f d2f | ege eBc | d2B GAB \
       c2c cBc | g2f d2f | egc dcd | c2e c2  :|
|: G | G3  GEG | c3  cBc | d2d dcd | e3  c2G \
       G3  GEG | e3  cBc | ded cBA | G2G GAB |]
